X:1
T:Is It Not Wonderful?
T:Elisha Albright Hoffman, 1899
T:Is It Not Wonderful?
T:Public Domain
T:Public Domain
T:Public Domain
C:Elisha Albright Hoffman, 1899
Z:Public Domain
%%score ( 1 2 ) ( 3 4 )
L:1/8
M:6/8
K:F
V:1 treble 
V:2 treble 
V:3 bass 
V:4 bass 
V:1
 C>[CF][CA] [CG]>[CF][CE] | [CF]3- [CF]2 z | F>[FA][Fc] [Ac]>[GB][FA] | [EG]3- [EG]2 z | %4
w: 1.~Won- drous it seem- eth to|Je- *|sus so gra- cious should be,|cy *|
w: 2.~Heart of mine nev- er could|Je- *|sus such peace could be- stow,|the *|
w: 3.~Once I was full of all|Now *|thro’ the blood I am clean;|ing *|
w: 4.~He doth my new heart con-|Cleans- *|ing and keep- ing me whole,|ish- *|
 [EG]>[FA][GB] [GB]2 [EG] | F>[FG][FA] [FA]2 [CF] | C>[CF][CA] [CG]>[CF][CE] | [CF]3- [CF]2 z |: %8
w: re- veal- ing, com- fort-|ing, heal- ing, Bless- ing|sin- ner like me. * *||
w: dear Sav- ior showed me|His fa- vor, Cleansed my|whit- er than snow. Is it|won- *|
w: to save me, par- don|He gave me, And I|hap- py with- in. Yes, it|won- *|
w: ing sad- ness, with joy|and glad- ness Fill- ing|thrill- ing my soul. * *||
"^Refrain" [Fc]>[Fc][Fc] [FA]>[FG]F | [^CA]>[CA][CA] [DG]>[DF][B,D] | [A,C]>[CF][CF] F>[FG][FA] | %11
w: |||
w: der- ful, is it not won-|ful Je- sus so gra- cious|should be? * * * *|
w: der- ful, strange and so won-|ful ~ ~ ~ ~ ~|~ ~ ~ ~ That He|
w: |||
 E>EF [Gc]2 z :| [A,C]>[CF][FA] [CG]>[CF][CE] | C>CD [CF]2 z |] %14
w: |||
w: |||
w: par- don and save|en~me! * * * * *||
w: |||
V:2
 C3/2 x9/2 | x6 | F3/2 x9/2 | x6 | x6 | F3/2 x9/2 | C3/2 x9/2 | x6 |: x5 F | x6 | x3 F3/2 x3/2 | %11
w: me||Mer-|||a||||||
w: know||Till|||heart|not||der-|||
w: sin,||Will-|||am|is||der-||should|
w: trol,||Ban-|||and||||||
 c3- x3 :| x6 | F3- x3 |] %14
w: |||
w: |||
w: ev-|||
w: |||
V:3
 [F,A,]>[F,A,][F,C] [C,B,]>[C,A,][C,G,] | [F,A,]3- [F,A,]2 z | %2
 [F,A,]>[F,C][F,A,] [F,C]>[F,C][F,C] | [C,C]3- [C,C]2 z | [C,C]>[C,C][C,C] [C,C]2 [C,C] | %5
 [F,A,]>[F,B,][F,C] [F,C]2 [F,A,] | [F,A,]>[F,A,][F,C] [C,B,]>[C,A,][C,G,] | [F,A,]3- [F,A,]2 z |: %8
 [F,A,]>[F,A,][F,A,] [F,C]>[F,B,][F,A,] | [A,,E,]>[A,,E,][A,,E,] [B,,D,]>[B,,D,][B,,F,] | %10
 F,>[F,A,][F,A,] [F,A,]>[F,B,][F,C] | C>G,A, [C,B,]2 z :| [C,F,]>[C,A,][C,C] [C,B,]>[C,A,][C,G,] | %13
 A,>A,B, [F,A,]2 z |] %14
V:4
 x6 | x6 | x6 | x6 | x6 | x6 | x6 | x6 |: x6 | x6 | F,3/2 x9/2 | C,3- x3 :| x6 | F,3- x3 |] %14

